X: 489
T: Chashan qingge
L: 1/8
M: 2/4
K: C
D F G G [I:setbarnb 1]| 
c A/ c/G2 | 
G A/ c/ G A/ c/ | 
G E/ G/D2 | 
D> F G A | 
c ed2 | 
c> e d c | 
d> e G A | 
c4 |]

@@@ Tune index: 9363
